exports/dalys-lost-to-autistic-spectrum_v1_850x600.svg

<svg xmlns="http://www.w3.org/2000/svg" version="1.1" style="background-color:#fff;-webkit-font-smoothing:antialiased" width="850" height="600" font-family="'Helvetica Neue',Helvetica,Arial,sans-serif" font-size="18" text-rendering="optimizeLegibility"><g class="ChartTab"><g class="HeaderView"><g opacity=".8" transform="matrix(.27 0 0 .27 778 15)"><a xmlns:xlink="http://www.w3.org/1999/xlink" xlink:href="https://ourworldindata.org" target="_blank"><g><path fill="#1B2543" d="M0 0h211.2v130.1H0z"/><path fill="#E63912" d="M0 112.2h211.2v17.9H0z"/><g><path fill="none" d="M1.2 12.3h210.2v99.2H1.2z"/><path fill="#FFF" d="M37.8 32.2c0 12.7-7.7 19.4-17.1 19.4-9.7 0-16.6-7.5-16.6-18.7 0-11.7 7.3-19.3 17.1-19.3 10.1.1 16.6 7.7 16.6 18.6zm-28.6.6c0 7.9 4.3 14.9 11.8 14.9 7.5 0 11.8-6.9 11.8-15.3 0-7.3-3.8-14.9-11.8-14.9-7.9 0-11.8 7.3-11.8 15.3zM62.7 43.8c0 2.7.1 5.1.2 7.2h-4.3l-.3-4.3h-.1c-1.3 2.1-4 4.9-8.8 4.9-4.2 0-9.1-2.3-9.1-11.6V24.6h4.8v14.6c0 5 1.5 8.4 5.9 8.4 3.2 0 5.5-2.2 6.3-4.4.3-.7.4-1.6.4-2.5V24.6h4.8v19.2zM67.3 32.8c0-3.1-.1-5.8-.2-8.2h4.2l.2 5.2h.2c1.2-3.5 4.1-5.8 7.3-5.8.5 0 .9.1 1.4.2v4.5c-.5-.1-1-.2-1.6-.2-3.4 0-5.8 2.6-6.5 6.2-.1.7-.2 1.4-.2 2.2V51h-4.8V32.8zM95.4 51L86 14.2h5l4.4 18.6c1.1 4.6 2.1 9.2 2.7 12.7h.1c.6-3.7 1.8-8 3-12.8l4.9-18.5h5l4.5 18.7c1 4.4 2 8.7 2.6 12.6h.1c.8-4 1.8-8.1 3-12.7l4.9-18.5h4.9L120.6 51h-5L111 31.9c-1.1-4.7-1.9-8.3-2.4-12h-.1c-.7 3.7-1.5 7.3-2.8 12L100.4 51h-5zM154.9 37.6c0 9.8-6.8 14-13.2 14-7.2 0-12.7-5.2-12.7-13.6 0-8.8 5.8-14 13.1-14 7.7 0 12.8 5.5 12.8 13.6zm-21 .3c0 5.8 3.3 10.1 8 10.1 4.6 0 8-4.3 8-10.3 0-4.5-2.2-10.1-7.9-10.1s-8.1 5.2-8.1 10.3zM158.2 32.8c0-3.1-.1-5.8-.2-8.2h4.2l.2 5.2h.2c1.2-3.5 4.1-5.8 7.3-5.8.5 0 .9.1 1.4.2v4.5c-.5-.1-1-.2-1.6-.2-3.4 0-5.8 2.6-6.5 6.2-.1.7-.2 1.4-.2 2.2V51h-4.8V32.8zM173.5 12.3h4.8V51h-4.8V12.3zM206.5 12.3v31.9c0 2.3.1 5 .2 6.8h-4.3l-.2-4.6h-.2c-1.5 2.9-4.7 5.2-9 5.2-6.4 0-11.3-5.4-11.3-13.4-.1-8.8 5.4-14.2 11.9-14.2 4 0 6.8 1.9 8 4h.1V12.3h4.8zm-4.8 23.1c0-.6-.1-1.4-.2-2a7 7 0 00-6.9-5.6c-5 0-7.9 4.4-7.9 10.2 0 5.3 2.6 9.8 7.8 9.8 3.2 0 6.2-2.1 7.1-5.7.2-.7.2-1.3.2-2.1v-4.6zM42.8 64c.1 1.6-1.1 2.9-3.1 2.9-1.7 0-2.9-1.3-2.9-2.9 0-1.7 1.3-3 3-3 1.9 0 3 1.3 3 3zm-5.4 33.8V71.4h4.8v26.4h-4.8zM47.5 78.6c0-2.7-.1-5-.2-7.1h4.3l.3 4.4h.1c1.3-2.5 4.4-5 8.8-5 3.7 0 9.4 2.2 9.4 11.2v15.8h-4.8V82.6c0-4.3-1.6-7.8-6.1-7.8-3.2 0-5.6 2.2-6.5 4.9-.2.6-.3 1.4-.3 2.2v15.9h-4.8V78.6zM84 61.6c2.9-.4 6.3-.8 10.1-.8 6.8 0 11.7 1.6 14.9 4.6 3.3 3 5.2 7.3 5.2 13.2 0 6-1.9 10.9-5.3 14.3-3.4 3.4-9.1 5.3-16.3 5.3-3.4 0-6.2-.2-8.6-.4V61.6zm4.8 32.5c1.2.2 3 .3 4.8.3 10.2 0 15.7-5.7 15.7-15.6.1-8.7-4.9-14.2-14.9-14.2-2.5 0-4.3.2-5.6.5v29zM132.1 97.8l-.4-3.3h-.2a9.79 9.79 0 01-8.1 3.9c-5.4 0-8.1-3.8-8.1-7.6 0-6.4 5.7-9.9 15.9-9.8v-.5c0-2.2-.6-6.1-6-6.1-2.5 0-5 .8-6.9 2l-1.1-3.2c2.2-1.4 5.4-2.3 8.7-2.3 8.1 0 10.1 5.5 10.1 10.8v9.9c0 2.3.1 4.5.4 6.3h-4.3zm-.7-13.4c-5.3-.1-11.2.8-11.2 5.9 0 3.1 2.1 4.6 4.5 4.6 3.4 0 5.6-2.2 6.4-4.4.2-.5.3-1 .3-1.5v-4.6zM146.6 63.9v7.6h6.9v3.7h-6.9v14.2c0 3.3.9 5.1 3.6 5.1 1.3 0 2.2-.2 2.8-.3l.2 3.6c-.9.4-2.4.7-4.3.7-2.2 0-4-.7-5.2-2-1.4-1.4-1.9-3.8-1.9-6.9V75.1h-4.1v-3.7h4.1v-6.3l4.8-1.2zM171.4 97.8l-.4-3.3h-.2a9.79 9.79 0 01-8.1 3.9c-5.4 0-8.1-3.8-8.1-7.6 0-6.4 5.7-9.9 15.9-9.8v-.5c0-2.2-.6-6.1-6-6.1-2.5 0-5 .8-6.9 2l-1.1-3.2c2.2-1.4 5.4-2.3 8.7-2.3 8.1 0 10.1 5.5 10.1 10.8v9.9c0 2.3.1 4.5.4 6.3h-4.3zm-.7-13.4c-5.3-.1-11.2.8-11.2 5.9 0 3.1 2.1 4.6 4.5 4.6 3.4 0 5.6-2.2 6.4-4.4.2-.5.3-1 .3-1.5v-4.6z"/></g></g></a></g><a href="https://ourworldindata.org/grapher/dalys-lost-to-autistic-spectrum" target="_blank"><text font-size="21.6" x="15" y="32.3" fill="#555"><tspan x="15" y="32.28">DALYs (Disability-Adjusted Life Years) lost to autistic spectrum disorders,</tspan><tspan x="15" y="53.88">World</tspan></text></a><text font-size="14.4" x="15" y="72.7" fill="#666"><tspan x="15" y="72.72">Annual DALYs (Disability-Adjusted Life Years) lost from autistic spectrum disorders. DALYs are used to measure total burden of</tspan><tspan x="15" y="88.56">disease - both from years of life lost and years lived with a disability. One DALY equals one lost year of healthy life.</tspan></text></g><g class="StackedArea"><defs><clipPath id="a"><path d="M79.45 0h820v890.8h-820z"/></clipPath></defs><g class="AxisBoxView"><g class="HorizontalAxis" fill="#666" text-anchor="middle" font-size="16.2"><text x="79.5" y="556.5">1990</text><text x="196.7" y="556.5">1995</text><text x="313.9" y="556.5">2000</text><text x="431.1" y="556.5">2005</text><text x="548.3" y="556.5">2010</text><text x="689" y="556.5">2016</text></g><g class="VerticalAxis" fill="#666" dominant-baseline="middle" text-anchor="end" font-size="16.2"><text x="74.45" y="535.3">0</text><text x="74.45" y="441.3">2 million</text><text x="74.45" y="347.3">4 million</text><text x="74.45" y="253.3">6 million</text><text x="74.45" y="159.3">8 million</text></g><g class="AxisGridLines"><path stroke="#ccc" d="M79.45 535.3H689"/><path stroke="#ddd" stroke-dasharray="3,2" d="M79.45 441.3H689M79.45 347.3H689M79.45 253.3H689M79.45 159.3H689"/></g><g class="AxisGridLines" stroke="#ddd" stroke-dasharray="3,2"><path d="M79.5 535.3V111.1M196.7 535.3V111.1M313.9 535.3V111.1M431.1 535.3V111.1M548.3 535.3V111.1M665.6 535.3V111.1"/></g></g><g clip-path="url(#a)"><g class="HeightedLegend clickable"><g class="legendMark"><path fill="#5eb77e" d="M694 219.05h10v2.5h-10z"/><text font-size="14.4" x="709" y="224.6" fill="#333"><tspan x="709" y="224.62">Autism</tspan></text></g><g class="legendMark"><path fill="#3360a9" d="M694 431.15h10v2.5h-10z"/><text font-size="14.4" x="709" y="421.2" fill="#333"><tspan x="709" y="421.22">Asperger syndrome</tspan><tspan x="709" y="437.06">and other autistic</tspan><tspan x="709" y="452.9">spectrum disorders</tspan></text></g></g><g class="Areas"><path d="M79.5 387l23.4-2.4 23.4-2.6 23.5-2.6 23.4-2.5 23.5-2.4 23.4-2.6 23.5-2.3 23.4-2.3 23.5-2 23.4-2.1 23.4-2.2 23.5-2.1 23.4-2 23.5-2.2 23.4-1.9 23.5-2 23.4-2.2 23.4-2.2 23.5-2.2 23.4-2.1 23.5-2.2 23.4-2.2 23.5-2 23.4-2 23.5-2.1 23.4-2v205.7H79.45" fill="#3360a9" fill-opacity=".7" class="World_1-area"/><path d="M79.5 228.6l23.4-5.1 23.4-5 23.5-5.4 23.4-5.3 23.5-4.9 23.4-5.3 23.5-4.7 23.4-4.5 23.5-4.3 23.4-4.3 23.4-4.3 23.5-4.2 23.4-4.3 23.5-4.4 23.4-4.1 23.5-4.1 23.4-4.3 23.4-4.5 23.5-4.5 23.4-4.3 23.5-4.5 23.4-4.3 23.5-4.3 23.4-4.1 23.5-4.3 23.4-4.2v218.5l-23.4 2-23.5 2.1-23.4 2-23.5 2-23.4 2.2-23.5 2.2-23.4 2.1-23.5 2.2-23.4 2.2-23.4 2.2-23.5 2-23.4 1.9-23.5 2.2-23.4 2-23.5 2.1-23.4 2.2-23.4 2.1-23.5 2-23.4 2.3-23.5 2.3-23.4 2.6-23.5 2.4-23.4 2.5-23.5 2.6-23.4 2.6-23.4 2.4" fill="#5eb77e" fill-opacity=".7" class="World_0-area"/><path stroke-linecap="round" d="M79.5 387l23.4-2.4 23.4-2.6 23.5-2.6 23.4-2.5 23.5-2.4 23.4-2.6 23.5-2.3 23.4-2.3 23.5-2 23.4-2.1 23.4-2.2 23.5-2.1 23.4-2 23.5-2.2 23.4-1.9 23.5-2 23.4-2.2 23.4-2.2 23.5-2.2 23.4-2.1 23.5-2.2 23.4-2.2 23.5-2 23.4-2 23.5-2.1 23.4-2" stroke="#2B508D" stroke-opacity=".7" stroke-width=".5" fill="none" class="World_1-border"/><path stroke-linecap="round" d="M79.5 228.6l23.4-5.1 23.4-5 23.5-5.4 23.4-5.3 23.5-4.9 23.4-5.3 23.5-4.7 23.4-4.5 23.5-4.3 23.4-4.3 23.4-4.3 23.5-4.2 23.4-4.3 23.5-4.4 23.4-4.1 23.5-4.1 23.4-4.3 23.4-4.5 23.5-4.5 23.4-4.3 23.5-4.5 23.4-4.3 23.5-4.3 23.4-4.1 23.5-4.3 23.4-4.2" stroke="#4F9969" stroke-opacity=".7" stroke-width=".5" fill="none" class="World_0-border"/></g></g></g><g class="SourcesFooter" fill="#777"><g class="clickable" fill="#777"><text font-size="12.6" x="15" y="581.6"><tspan x="15" y="581.58">Source: IHME, Global Burden of Disease</tspan></text></g><text font-size="12.6" x="649" y="581.6"><tspan x="649.02" y="581.58"><a target="_blank" href="https://ourworldindata.org" fill="#777">OurWorldInData.org</a> • <a href="http://creativecommons.org/licenses/by-sa/4.0/deed.en_US" target="_blank" fill="#777">CC BY-SA</a></tspan></text></g></g></svg>

<svg xmlns="http://www.w3.org/2000/svg" version="1.1" style="font-family: 'Helvetica Neue', Helvetica, Arial, sans-serif; font-size: 18px; background-color: white; text-rendering: optimizeLegibility; -webkit-font-smoothing: antialiased;" width="850" height="600"><g class="ChartTab"><g class="HeaderView"><g opacity="0.8" transform="translate(778, 15) scale(0.27)"><a xmlns:xlink="http://www.w3.org/1999/xlink" xlink:href="https://ourworldindata.org" target="_blank"><g><rect x="0" y="0" fill="#1B2543" width="211.2" height="130.1"/><rect x="0" y="112.2" fill="#E63912" width="211.2" height="17.9"/><g><rect x="1.2" y="12.3" fill="none" width="210.2" height="99.2"/><path fill="#FFFFFF" d="M37.8,32.2c0,12.7-7.7,19.4-17.1,19.4c-9.7,0-16.6-7.5-16.6-18.7c0-11.7,7.3-19.3,17.1-19.3 C31.3,13.7,37.8,21.3,37.8,32.2z M9.2,32.8c0,7.9,4.3,14.9,11.8,14.9c7.5,0,11.8-6.9,11.8-15.3c0-7.3-3.8-14.9-11.8-14.9 C13.1,17.5,9.2,24.8,9.2,32.8z"/><path fill="#FFFFFF" d="M62.7,43.8c0,2.7,0.1,5.1,0.2,7.2h-4.3l-0.3-4.3h-0.1c-1.3,2.1-4,4.9-8.8,4.9c-4.2,0-9.1-2.3-9.1-11.6 V24.6h4.8v14.6c0,5,1.5,8.4,5.9,8.4c3.2,0,5.5-2.2,6.3-4.4c0.3-0.7,0.4-1.6,0.4-2.5V24.6h4.8V43.8z"/><path fill="#FFFFFF" d="M67.3,32.8c0-3.1-0.1-5.8-0.2-8.2h4.2l0.2,5.2h0.2c1.2-3.5,4.1-5.8,7.3-5.8c0.5,0,0.9,0.1,1.4,0.2v4.5 c-0.5-0.1-1-0.2-1.6-0.2c-3.4,0-5.8,2.6-6.5,6.2c-0.1,0.7-0.2,1.4-0.2,2.2V51h-4.8V32.8z"/><path fill="#FFFFFF" d="M95.4,51l-9.4-36.8h5l4.4,18.6c1.1,4.6,2.1,9.2,2.7,12.7h0.1c0.6-3.7,1.8-8,3-12.8l4.9-18.5h5l4.5,18.7 c1,4.4,2,8.7,2.6,12.6h0.1c0.8-4,1.8-8.1,3-12.7l4.9-18.5h4.9L120.6,51h-5L111,31.9c-1.1-4.7-1.9-8.3-2.4-12h-0.1 c-0.7,3.7-1.5,7.3-2.8,12L100.4,51H95.4z"/><path fill="#FFFFFF" d="M154.9,37.6c0,9.8-6.8,14-13.2,14c-7.2,0-12.7-5.2-12.7-13.6c0-8.8,5.8-14,13.1-14 C149.8,24,154.9,29.5,154.9,37.6z M133.9,37.9c0,5.8,3.3,10.1,8,10.1c4.6,0,8-4.3,8-10.3c0-4.5-2.2-10.1-7.9-10.1 C136.3,27.6,133.9,32.8,133.9,37.9z"/><path fill="#FFFFFF" d="M158.2,32.8c0-3.1-0.1-5.8-0.2-8.2h4.2l0.2,5.2h0.2c1.2-3.5,4.1-5.8,7.3-5.8c0.5,0,0.9,0.1,1.4,0.2v4.5 c-0.5-0.1-1-0.2-1.6-0.2c-3.4,0-5.8,2.6-6.5,6.2c-0.1,0.7-0.2,1.4-0.2,2.2V51h-4.8V32.8z"/><path fill="#FFFFFF" d="M173.5,12.3h4.8V51h-4.8V12.3z"/><path fill="#FFFFFF" d="M206.5,12.3v31.9c0,2.3,0.1,5,0.2,6.8h-4.3l-0.2-4.6H202c-1.5,2.9-4.7,5.2-9,5.2 c-6.4,0-11.3-5.4-11.3-13.4c-0.1-8.8,5.4-14.2,11.9-14.2c4,0,6.8,1.9,8,4h0.1V12.3H206.5z M201.7,35.4c0-0.6-0.1-1.4-0.2-2 c-0.7-3.1-3.3-5.6-6.9-5.6c-5,0-7.9,4.4-7.9,10.2c0,5.3,2.6,9.8,7.8,9.8c3.2,0,6.2-2.1,7.1-5.7c0.2-0.7,0.2-1.3,0.2-2.1V35.4z"/><path fill="#FFFFFF" d="M42.8,64c0.1,1.6-1.1,2.9-3.1,2.9c-1.7,0-2.9-1.3-2.9-2.9c0-1.7,1.3-3,3-3C41.7,61,42.8,62.3,42.8,64z M37.4,97.8V71.4h4.8v26.4H37.4z"/><path fill="#FFFFFF" d="M47.5,78.6c0-2.7-0.1-5-0.2-7.1h4.3l0.3,4.4h0.1c1.3-2.5,4.4-5,8.8-5c3.7,0,9.4,2.2,9.4,11.2v15.8h-4.8 V82.6c0-4.3-1.6-7.8-6.1-7.8c-3.2,0-5.6,2.2-6.5,4.9c-0.2,0.6-0.3,1.4-0.3,2.2v15.9h-4.8V78.6z"/><path fill="#FFFFFF" d="M84,61.6c2.9-0.4,6.3-0.8,10.1-0.8c6.8,0,11.7,1.6,14.9,4.6c3.3,3,5.2,7.3,5.2,13.2c0,6-1.9,10.9-5.3,14.3 c-3.4,3.4-9.1,5.3-16.3,5.3c-3.4,0-6.2-0.2-8.6-0.4V61.6z M88.8,94.1c1.2,0.2,3,0.3,4.8,0.3c10.2,0,15.7-5.7,15.7-15.6 c0.1-8.7-4.9-14.2-14.9-14.2c-2.5,0-4.3,0.2-5.6,0.5V94.1z"/><path fill="#FFFFFF" d="M132.1,97.8l-0.4-3.3h-0.2c-1.5,2.1-4.3,3.9-8.1,3.9c-5.4,0-8.1-3.8-8.1-7.6c0-6.4,5.7-9.9,15.9-9.8v-0.5 c0-2.2-0.6-6.1-6-6.1c-2.5,0-5,0.8-6.9,2l-1.1-3.2c2.2-1.4,5.4-2.3,8.7-2.3c8.1,0,10.1,5.5,10.1,10.8v9.9c0,2.3,0.1,4.5,0.4,6.3 H132.1z M131.4,84.4c-5.3-0.1-11.2,0.8-11.2,5.9c0,3.1,2.1,4.6,4.5,4.6c3.4,0,5.6-2.2,6.4-4.4c0.2-0.5,0.3-1,0.3-1.5V84.4z"/><path fill="#FFFFFF" d="M146.6,63.9v7.6h6.9v3.7h-6.9v14.2c0,3.3,0.9,5.1,3.6,5.1c1.3,0,2.2-0.2,2.8-0.3l0.2,3.6 c-0.9,0.4-2.4,0.7-4.3,0.7c-2.2,0-4-0.7-5.2-2c-1.4-1.4-1.9-3.8-1.9-6.9V75.1h-4.1v-3.7h4.1v-6.3L146.6,63.9z"/><path fill="#FFFFFF" d="M171.4,97.8l-0.4-3.3h-0.2c-1.5,2.1-4.3,3.9-8.1,3.9c-5.4,0-8.1-3.8-8.1-7.6c0-6.4,5.7-9.9,15.9-9.8v-0.5 c0-2.2-0.6-6.1-6-6.1c-2.5,0-5,0.8-6.9,2l-1.1-3.2c2.2-1.4,5.4-2.3,8.7-2.3c8.1,0,10.1,5.5,10.1,10.8v9.9c0,2.3,0.1,4.5,0.4,6.3 H171.4z M170.7,84.4c-5.3-0.1-11.2,0.8-11.2,5.9c0,3.1,2.1,4.6,4.5,4.6c3.4,0,5.6-2.2,6.4-4.4c0.2-0.5,0.3-1,0.3-1.5V84.4z"/></g></g></a></g><a href="https://ourworldindata.org/grapher/dalys-lost-to-autistic-spectrum" target="_blank"><text font-size="21.60" x="15.0" y="32.3" fill="#555"><tspan x="15" y="32.279999999999994">DALYs (Disability-Adjusted Life Years) lost to autistic spectrum disorders,</tspan><tspan x="15" y="53.87999999999999">World</tspan></text></a><text font-size="14.40" x="15.0" y="72.7" fill="#666"><tspan x="15" y="72.72">Annual DALYs (Disability-Adjusted Life Years) lost from autistic spectrum disorders. DALYs are used to measure total burden of</tspan><tspan x="15" y="88.56">disease - both from years of life lost and years lived with a disability. One DALY equals one lost year of healthy life.</tspan></text></g><g class="StackedArea"><defs><clipPath id="boundsClip-1"><rect x="79.45400000000001" y="0" width="820" height="890.8"></rect></clipPath></defs><g class="AxisBoxView"><g class="HorizontalAxis"><text x="79.5" y="556.5" fill="#666" text-anchor="middle" font-size="16.2">1990</text><text x="196.7" y="556.5" fill="#666" text-anchor="middle" font-size="16.2">1995</text><text x="313.9" y="556.5" fill="#666" text-anchor="middle" font-size="16.2">2000</text><text x="431.1" y="556.5" fill="#666" text-anchor="middle" font-size="16.2">2005</text><text x="548.3" y="556.5" fill="#666" text-anchor="middle" font-size="16.2">2010</text><text x="689" y="556.5" fill="#666" text-anchor="middle" font-size="16.2">2016</text></g><g class="VerticalAxis"><text x="74.45" y="535.3" fill="#666" dominant-baseline="middle" text-anchor="end" font-size="16.2">0</text><text x="74.45" y="441.3" fill="#666" dominant-baseline="middle" text-anchor="end" font-size="16.2">2 million</text><text x="74.45" y="347.3" fill="#666" dominant-baseline="middle" text-anchor="end" font-size="16.2">4 million</text><text x="74.45" y="253.3" fill="#666" dominant-baseline="middle" text-anchor="end" font-size="16.2">6 million</text><text x="74.45" y="159.3" fill="#666" dominant-baseline="middle" text-anchor="end" font-size="16.2">8 million</text></g><g class="AxisGridLines"><line x1="79.45" y1="535.3" x2="689.00" y2="535.3" stroke="#ccc"></line><line x1="79.45" y1="441.3" x2="689.00" y2="441.3" stroke="#ddd" stroke-dasharray="3,2"></line><line x1="79.45" y1="347.3" x2="689.00" y2="347.3" stroke="#ddd" stroke-dasharray="3,2"></line><line x1="79.45" y1="253.3" x2="689.00" y2="253.3" stroke="#ddd" stroke-dasharray="3,2"></line><line x1="79.45" y1="159.3" x2="689.00" y2="159.3" stroke="#ddd" stroke-dasharray="3,2"></line></g><g class="AxisGridLines"><line x1="79.5" y1="535.30" x2="79.5" y2="111.10" stroke="#ddd" stroke-dasharray="3,2"></line><line x1="196.7" y1="535.30" x2="196.7" y2="111.10" stroke="#ddd" stroke-dasharray="3,2"></line><line x1="313.9" y1="535.30" x2="313.9" y2="111.10" stroke="#ddd" stroke-dasharray="3,2"></line><line x1="431.1" y1="535.30" x2="431.1" y2="111.10" stroke="#ddd" stroke-dasharray="3,2"></line><line x1="548.3" y1="535.30" x2="548.3" y2="111.10" stroke="#ddd" stroke-dasharray="3,2"></line><line x1="665.6" y1="535.30" x2="665.6" y2="111.10" stroke="#ddd" stroke-dasharray="3,2"></line></g></g><g clip-path="url(#boundsClip-1)"><g class="HeightedLegend clickable"><g class="legendMark"><rect x="694" y="213.10000000000002" width="59.06400000000001" height="14.4" fill="#fff" opacity="0"></rect><rect x="694" y="219.05" width="10" height="2.5" fill="#5eb77e"></rect><text font-size="14.40" x="709.0" y="224.6" fill="#333"><tspan x="709" y="224.62000000000003">Autism</tspan></text></g><g class="legendMark"><rect x="694" y="409.7" width="141" height="45.400000000000006" fill="#fff" opacity="0"></rect><rect x="694" y="431.15" width="10" height="2.5" fill="#3360a9"></rect><text font-size="14.40" x="709.0" y="421.2" fill="#333"><tspan x="709" y="421.21999999999997">Asperger syndrome</tspan><tspan x="709" y="437.05999999999995">and other autistic</tspan><tspan x="709" y="452.9">spectrum disorders</tspan></text></g></g><g class="Areas"><rect x="79.45400000000001" y="111.1" width="609.546" height="424.19999999999993" opacity="0" fill="rgba(255,255,255,0)"></rect><path stroke-linecap="round" d="M79.5 387L102.9 384.6L126.3 382L149.8 379.4L173.2 376.9L196.7 374.5L220.1 371.9L243.6 369.6L267 367.3L290.5 365.3L313.9 363.2L337.3 361L360.8 358.9L384.2 356.9L407.7 354.7L431.1 352.8L454.6 350.8L478 348.6L501.4 346.4L524.9 344.2L548.3 342.1L571.8 339.9L595.2 337.7L618.7 335.7L642.1 333.7L665.6 331.6L689 329.6L689 535.3L79.45400000000001 535.3" fill="#3360a9" fill-opacity="0.7" class="World_1-area"></path><path stroke-linecap="round" d="M79.5 228.6L102.9 223.5L126.3 218.5L149.8 213.1L173.2 207.8L196.7 202.9L220.1 197.6L243.6 192.9L267 188.4L290.5 184.1L313.9 179.8L337.3 175.5L360.8 171.3L384.2 167L407.7 162.6L431.1 158.5L454.6 154.4L478 150.1L501.4 145.6L524.9 141.1L548.3 136.8L571.8 132.3L595.2 128L618.7 123.7L642.1 119.6L665.6 115.3L689 111.1L689 329.6L665.6 331.6L642.1 333.7L618.7 335.7L595.2 337.7L571.8 339.9L548.3 342.1L524.9 344.2L501.4 346.4L478 348.6L454.6 350.8L431.1 352.8L407.7 354.7L384.2 356.9L360.8 358.9L337.3 361L313.9 363.2L290.5 365.3L267 367.3L243.6 369.6L220.1 371.9L196.7 374.5L173.2 376.9L149.8 379.4L126.3 382L102.9 384.6L79.5 387" fill="#5eb77e" fill-opacity="0.7" class="World_0-area"></path><path stroke-linecap="round" d="M79.5 387L102.9 384.6L126.3 382L149.8 379.4L173.2 376.9L196.7 374.5L220.1 371.9L243.6 369.6L267 367.3L290.5 365.3L313.9 363.2L337.3 361L360.8 358.9L384.2 356.9L407.7 354.7L431.1 352.8L454.6 350.8L478 348.6L501.4 346.4L524.9 344.2L548.3 342.1L571.8 339.9L595.2 337.7L618.7 335.7L642.1 333.7L665.6 331.6L689 329.6" stroke="rgb(43, 80, 141)" stroke-opacity="0.7" stroke-width="0.5" fill="none" class="World_1-border"></path><path stroke-linecap="round" d="M79.5 228.6L102.9 223.5L126.3 218.5L149.8 213.1L173.2 207.8L196.7 202.9L220.1 197.6L243.6 192.9L267 188.4L290.5 184.1L313.9 179.8L337.3 175.5L360.8 171.3L384.2 167L407.7 162.6L431.1 158.5L454.6 154.4L478 150.1L501.4 145.6L524.9 141.1L548.3 136.8L571.8 132.3L595.2 128L618.7 123.7L642.1 119.6L665.6 115.3L689 111.1" stroke="rgb(79, 153, 105)" stroke-opacity="0.7" stroke-width="0.5" fill="none" class="World_0-border"></path></g></g></g><g style="fill: #777;" class="SourcesFooter"><g style="fill: #777;" class="clickable"><text font-size="12.60" x="15.0" y="581.6"><tspan x="15" y="581.58">Source: IHME, Global Burden of Disease</tspan></text></g><text font-size="12.60" x="649.0" y="581.6"><tspan x="649.024" y="581.58"><a target='_blank' style='fill: #777;' href='https://ourworldindata.org'>OurWorldInData.org</a> • <a style="fill: #777;" href="http://creativecommons.org/licenses/by-sa/4.0/deed.en_US" target="_blank">CC BY-SA</a></tspan></text></g></g></svg>
